X: 497
M: C|
L: 1/8
K: D
V: 1
z |\
|: f/g/ |\
afd(e/f/) gece | afdf e>f (ef/g/) |\
af-f(e/f/) g(e e)(f/g/) | afge d/d/d d :|
V: 2 clef=bass middle=d
z | d2d2 d2d2 | a2a2 a2a2 | d2d2 d2d2 | a2A2 d2D :|
|: z | d'2d2 a2A2 | d'2d2 a2A2 | d'2d2 a2A2 | d'2a2 d3 :|

